X: 22098
T: Knotted Cord, The
R: reel
M: 4/4
K: Adorian
|:dB|A3B AE~E2|A2(3Bcd edBA|~G3A GEDE|~G2(3BAG dGBG|
~A3B AE~E2|A2(3Bcd edBA|~G2Bd efge|1 dBGA ~B2:|2 dBGA BAA2||
ea~a2 eaag|eaag aged|eg~g2 eggf|~g3a ged2|
ea~a2 eaag|eaag aged|~B3d gaba|1 gedB BAA2:|2 gedB ~B2||

